X:1
T:Title
%%score { ( 1 3 ) | ( 2 4 ) }
L:1/8
Q:1/4=104
M:4/4
K:Eb
V:1 treble nm="Grand Piano"
V:3 treble 
V:2 bass 
V:4 bass 
V:1
 B2 BB B2 B2 | B2 BB B2 B2 | E2 B,E G2 EG | [GB]2 [EG][FB] [Ee]4 | [Ee]2 dc B2 GE | D4- [DB]4 | %6
w: W.~Stillman~Martin * * * *||||||
 E2 B,E G2 EG | [GB]2 [EG][FB] [Ee]4 | d2 BB f2 d2 | c4 [DB]4 | G4 B4 | c>=B ce c_BGE | A4 G4 | %13
w: |||||||
 [EF][EG][EF][EG] [DF]4 | G4 B4 | c>=B ce c_BGB | cdec BG[C=EA][B,EG] | %17
w: ||||
[M:5/4] [=A,EG]3 [_A,DF]3 [G,E]4 |] %18
w: |
V:2
 [E,G,B,]2 [F,A,B,][F,A,B,] [G,B,]2 [F,A,B,]2 | [E,G,B,]2 [F,A,B,][F,A,B,] [G,B,]2 [F,A,B,]2 | %2
 [E,G,B,]2 [E,G,][E,G,B,] [E,B,E]2 [E,G,B,][E,B,E] | [E,E]2 [E,B,][D,B,] [C,C]4 | %4
 [A,C]2 [A,B,E][A,E] [E,G,E]2 [E,B,E][E,G,] | z4 A,4 | %6
 [E,G,B,]2 [E,G,][E,G,B,] [E,B,E]2 [E,G,B,][E,B,E] | [E,E]2 [E,B,][D,B,] [C,C]4 | %8
 [G,B,G]2 [G,C=E][G,CE] [F,DF]2 [F,B,F]2 | [F,=A,E]4 [B,,B,]4 | [E,B,E]4 [G,B,E]4 | %11
 [A,E]>[A,D] [A,E][A,CE] [E,A,E][E,G,E][E,B,E][G,B,] | [F,B,D]4 [E,B,E]4 | %13
 [C,=A,][C,A,][F,A,][F,A,] [B,,B,]4 | [E,B,E]4 [G,B,E]4 | %15
 [A,E]>[A,D] [A,E][A,CE] [E,A,E][E,G,E][E,B,E][G,B,E] | %16
 [A,E][A,B,E][A,CE][A,E] [E,G,E][E,B,E]C,C, |[M:5/4] F,3 B,,3 E,4 |] %18
V:3
 x8 | x8 | x8 | x8 | x8 | [B,F]4 z4 | x8 | x8 | x8 | x8 | x8 | x8 | x8 | x8 | x8 | x8 | x8 | %17
[M:5/4] x10 |] %18
V:4
 x8 | x8 | x8 | x8 | x8 | B,,8 | x8 | x8 | x8 | x8 | x8 | x8 | x8 | x8 | x8 | x8 | x8 | %17
[M:5/4] x10 |] %18

